!! 00000] TT[WS
!!!OTL: Fengyang huagu
!!!ARE: Asia, China, Shanxi Wutai
!! Ethnic Group: Han
!! WI, 261 (1)
!!!SCT: J0308
!!!YEM: Copyright 1995, estate of Helmut Schaffrath.
**kern
*ICvox
*Ivox
*M2/4
*k[b-]
*F:
{8cc
8dd
4ff
=1
8ff
8dd
4cc
=2
8cc
8dd
4ff
=3
8ff
8dd
4cc}
=4
{8cc
4cc
8dd
=5
4cc
4cc
=6
8ff
8cc
8a
8g
=7
2f}
=8
{8a
8g
16a
16a
16a
16g
=9
8a
8f
4g
=10
8cc
8cc
8cc
8a
=11
2cc}
=12
{8cc
4cc
8dd
=13
4ff
4cc
=14
8ff
8cc
8a
8g
=15
8f
8a
8g
8d
=16
2f}
==
!!!AGN: Xiaodiao, Fengsuge
!!!ONB: ESAC (Essen Associative Code) Database: CHINA
!!!AMT: simple duple
!!!AIN: vox
!!!EED: Helmut Schaffrath
!!!EEV: 1.0
*-
